X:2488
T:Hartigan's Fancy
O:england
N:IrTrad, 6/99
R:jig
B:Jim Coogan's Session Tunes
M:6/8
L:1/8
K:Bm
A|:BeB BAF|AFE EFE|DFA def|afe dBA|
BeB BAF|AFE EFE|DFA def|1 edB B2 A:|2 edB Bcd||
efe edB|AFF dFF|def afa|bd'b aff|
bff afa|baf edB|def afe|1 dBB Bcd:|2 dBB B2||


